elementary-lxqt/actions/16/window-new.svg

<?xml version="1.0" encoding="UTF-8" standalone="no"?>
<svg
   height="16"
   width="16"
   version="1.1"
   id="svg1"
   xmlns="http://www.w3.org/2000/svg"
   xmlns:svg="http://www.w3.org/2000/svg">
  <defs
     id="defs1">
    <style
       id="current-color-scheme"
       type="text/css">
      .ColorScheme-Text{color:#282828}
    </style>
  </defs>
  <g
     id="g1"
     class="ColorScheme-Text"
     fill="currentColor"
     opacity="0.9">
    <path
       id="path1"
       d="m 12,10 v 2 h -2 v 2 h 2 v 2 h 2 v -2 h 2 v -2 h -2 v -2 z" />
    <path
       id="path2"
       d="M 2.5 1 C 1.6776486 1 1 1.6776486 1 2.5 L 1 13.5 C 1 14.322351 1.6776486 15 2.5 15 L 9 15 L 9 14 L 2.5 14 C 2.2143514 14 2 13.785649 2 13.5 L 2 5 L 14 5 L 14 9 L 15 9 L 15 2.5 C 15 1.6776486 14.322351 1 13.5 1 L 2.5 1 z" />
  </g>
</svg>

<?xml version="1.0" encoding="UTF-8" standalone="no"?>
<svg
   xmlns:dc="http://purl.org/dc/elements/1.1/"
   xmlns:cc="http://creativecommons.org/ns#"
   xmlns:rdf="http://www.w3.org/1999/02/22-rdf-syntax-ns#"
   xmlns:svg="http://www.w3.org/2000/svg"
   xmlns="http://www.w3.org/2000/svg"
   id="svg4060"
   height="16"
   width="16"
   version="1.1">
  <defs
     id="defs4062" />
  <metadata
     id="metadata4065">
    <rdf:RDF>
      <cc:Work
         rdf:about="">
        <dc:format>image/svg+xml</dc:format>
        <dc:type
           rdf:resource="http://purl.org/dc/dcmitype/StillImage" />
        <dc:title />
      </cc:Work>
    </rdf:RDF>
  </metadata>
  <path
     id="rect4139"
     d="M 2.5 1 C 1.6776486 1 1 1.6776486 1 2.5 L 1 13.5 C 1 14.322351 1.6776486 15 2.5 15 L 9 15 L 9 14 L 2.5 14 C 2.2143514 14 2 13.785649 2 13.5 L 2 5 L 14 5 L 14 9 L 15 9 L 15 2.5 C 15 1.6776486 14.322351 1 13.5 1 L 2.5 1 z M 12 10 L 12 12 L 10 12 L 10 14 L 12 14 L 12 16 L 14 16 L 14 14 L 16 14 L 16 12 L 14 12 L 14 10 L 12 10 z "
     style="color:#000000;font-style:normal;font-variant:normal;font-weight:normal;font-stretch:normal;font-size:medium;line-height:normal;font-family:sans-serif;text-indent:0;text-align:start;text-decoration:none;text-decoration-line:none;text-decoration-style:solid;text-decoration-color:#000000;letter-spacing:normal;word-spacing:normal;text-transform:none;direction:ltr;block-progression:tb;writing-mode:lr-tb;baseline-shift:baseline;text-anchor:start;white-space:normal;clip-rule:nonzero;display:inline;overflow:visible;visibility:visible;opacity:1;isolation:auto;mix-blend-mode:normal;color-interpolation:sRGB;color-interpolation-filters:linearRGB;solid-color:#000000;solid-opacity:1;fill:#666666;fill-opacity:1;fill-rule:nonzero;stroke:none;stroke-width:1;stroke-linecap:butt;stroke-linejoin:miter;stroke-miterlimit:4;stroke-dasharray:none;stroke-dashoffset:0;stroke-opacity:1;marker:none;color-rendering:auto;image-rendering:auto;shape-rendering:auto;text-rendering:auto;enable-background:accumulate" />
</svg>
